X:1
T: Highland Donald Kissed Kitty
C:
R:Strathspey
Q: 128
K:G
M:4/4
L:1/16
|:BG3 G3A B3A Bg3|BG3 G3B A3B c3A|BG3 G3A B3A Bd3|eg3 dg3 Bg3 A4|
BG3 G3A B3A Bg3|BG3 G3B A3B c3A|BG3 G3A B3A Bd3|eg3 dg3 Bg3 A4|
Bd3 d3e g3d e3c|Bd3 d3e g3B A3c|Bd3 d3e g3d e3d|eg3 dg3 Bg3 A4|
Bd3 d3e g3d e3c|Bd3 d3e g3B A3c|Bd3 d3e g3d e3d|eg3 dg3 Bg3 A4:|
